src/images/pages/trade-explanation/zh_cn/run-low.svg

<?xml version="1.0" encoding="UTF-8"?>
<svg width="299px" height="197px" viewBox="0 0 299 197" version="1.1" xmlns="http://www.w3.org/2000/svg" xmlns:xlink="http://www.w3.org/1999/xlink">
    <!-- Generator: Sketch 52.6 (67491) - http://www.bohemiancoding.com/sketch -->
    <title>Run low</title>
    <desc>Created with Sketch.</desc>
    <defs>
        <path d="M15.78,11.39 L29.205,11.39 L29.205,12.785 L22.815,12.785 L22.815,14.75 C24.645,15.635 26.505,16.655 28.395,17.795 L27.54,19.085 C25.65,17.855 24.075,16.91 22.815,16.265 L22.815,24.545 L21.39,24.545 L21.39,12.785 L15.78,12.785 L15.78,11.39 Z M31.23,11.225 L36.045,11.225 L36.045,16.205 L34.62,16.205 L34.62,18.275 L36.21,18.275 L36.21,19.625 L34.62,19.625 L34.62,21.905 C35.16,21.74 35.67,21.575 36.165,21.425 L36.165,22.85 C34.635,23.36 32.88,23.84 30.87,24.275 L30.465,22.91 C30.69,22.85 30.915,22.805 31.14,22.775 L31.14,17.54 L32.4,17.54 L32.4,22.49 C32.7,22.415 33,22.34 33.285,22.28 L33.285,16.205 L31.23,16.205 L31.23,11.225 Z M34.695,14.885 L34.695,12.545 L32.595,12.545 L32.595,14.885 L34.695,14.885 Z M38.355,14.66 C38.13,15.41 37.875,16.115 37.605,16.745 L36.435,16.01 C37.05,14.63 37.5,13.145 37.77,11.585 L38.985,11.84 C38.895,12.35 38.805,12.83 38.7,13.28 L39.84,13.28 L39.84,10.745 L41.19,10.745 L41.19,13.28 L43.485,13.28 L43.485,14.66 L41.175,14.66 C41.145,15.59 41.07,16.46 40.965,17.255 L44.04,17.255 L44.04,18.62 L41.385,18.62 C41.775,20.63 42.81,22.205 44.505,23.345 L43.71,24.605 C42.09,23.36 40.995,21.755 40.455,19.79 C40.32,20.21 40.185,20.585 40.05,20.945 C39.36,22.505 38.25,23.705 36.72,24.545 L35.985,23.405 C37.455,22.505 38.46,21.365 39,19.97 C39.15,19.55 39.27,19.1 39.375,18.62 L36.615,18.62 L36.615,17.255 L39.63,17.255 C39.735,16.445 39.795,15.59 39.825,14.66 L38.355,14.66 Z" id="path-1"></path>
    </defs>
    <g id="Page-1" stroke="none" stroke-width="1" fill="none" fill-rule="evenodd">
        <g id="Run-low">
            <polygon id="Path" fill="#F1F2F2" points="0 0 299 0 299 197 0 197"></polygon>
            <path d="M1.98671096,1.9798995 L1.98671096,195.020101 L297.013289,195.020101 L297.013289,1.9798995 L1.98671096,1.9798995 Z M299,0 L299,197 L0,197 L0,0 L299,0 Z" id="Path" fill="#C2C2C2" fill-rule="nonzero"></path>
            <path d="M5,54.8937051 L5,53.6865475 L295,53.6865475 L295,54.8937051 L5,54.8937051 Z M5,75.2212672 L5,74.0141095 L295,74.0141095 L295,75.2212672 L5,75.2212672 Z M5,95.5113934 L5,94.3042358 L295,94.3042358 L295,95.5113934 L5,95.5113934 Z M5,136.129081 L5,134.921924 L295,134.921924 L295,136.129081 L5,136.129081 Z M5,156.419208 L5,155.21205 L295,155.21205 L295,156.419208 L5,156.419208 Z M5,176.709335 L5,175.502177 L295,175.502177 L295,176.709335 L5,176.709335 Z M39.4203806,34 L40.6286516,34 L40.6286516,194 L39.4203806,194 L39.4203806,34 Z M76.1287678,34 L77.3370388,34 L77.3370388,194 L76.1287678,194 L76.1287678,34 Z M112.799735,34 L114.008006,34 L114.008006,194 L112.799735,194 L112.799735,34 Z M149.508122,34 L150.716393,34 L150.716393,194 L149.508122,194 L149.508122,34 Z M186.17909,34 L187.387361,34 L187.387361,194 L186.17909,194 L186.17909,34 Z M222.850058,34 L224.058329,34 L224.058329,194 L222.850058,194 L222.850058,34 Z M259.558445,34 L260.766716,34 L260.766716,194 L259.558445,194 L259.558445,34 Z" id="Shape" fill="#DFDEDE" fill-rule="nonzero"></path>
            <polygon id="Path" fill="#C2C2C2" fill-rule="nonzero" points="0.804766102 33.9510902 0.804766102 31.504306 298.631318 31.504306 298.631318 33.9510902"></polygon>
            <g id="下跌" fill="#000000">
                <use xlink:href="#path-1"></use>
                <use xlink:href="#path-1"></use>
            </g>
            <path d="M125.443646,89.3568677 L88.0816107,116.146679 C87.9376869,116.249878 87.7689387,116.313003 87.5926197,116.329601 L52.6337332,119.620598 C52.0838795,119.672361 51.5961731,119.268578 51.5444104,118.718725 C51.4926477,118.168871 51.8964302,117.681165 52.4462839,117.629402 L87.1359422,114.36375 L124.440364,87.6152494 C124.547408,87.5384952 124.668561,87.4836446 124.796865,87.4538481 L161.335859,78.9682268 L197.684572,55.2864603 C197.812297,55.2032458 197.957355,55.1503335 198.108661,55.1317674 L235.548618,50.5376741 C236.096791,50.4704101 236.595702,50.8602642 236.662966,51.4084376 C236.73023,51.9566109 236.340376,52.4555214 235.792202,52.5227853 L198.58221,57.0886607 L162.279803,80.7402578 C162.182013,80.8039695 162.073825,80.8500702 161.960137,80.8764725 L125.443646,89.3568677 Z M161.507708,78.9283175 L161.188041,79.0645323 L161.335859,78.9682268 L161.507708,78.9283175 Z M87.4051704,114.338405 L86.9161794,114.521327 L87.1359422,114.36375 L87.4051704,114.338405 Z" id="Shape" fill="#2A3052" fill-rule="nonzero" transform="translate(144.105227, 85.077597) scale(-1, 1) rotate(-180.000000) translate(-144.105227, -85.077597) "></path>
            <path d="M190.2625,150.5625 L155.1625,150.5625 L149.7625,142.35 L144.3625,150.5625 L109.2625,150.5625 C106.6375,150.5625 104.5375,152.7 104.5375,155.3625 L104.5375,180.15 C104.5375,182.8125 106.675,184.95 109.2625,184.95 L190.2625,184.95 C192.8875,184.95 194.9875,182.8125 194.9875,180.15 L194.9875,155.3625 C194.9875,152.7 192.85,150.5625 190.2625,150.5625 Z" id="Shape" fill="#E88024"></path>
            <g id="Group" transform="translate(226.750000, 109.750000)">
                <g id="Oval" opacity="0.6" fill="#FFFFFF">
                    <ellipse cx="8.5125" cy="9.225" rx="8.1375" ry="8.475"></ellipse>
                </g>
                <path d="M8.5125,18.02305 C3.83686418,18.02305 0.05195,14.0811578 0.05195,9.225 C0.05195,4.36884218 3.83686418,0.42695 8.5125,0.42695 C13.1881358,0.42695 16.97305,4.36884218 16.97305,9.225 C16.97305,14.0811578 13.1881358,18.02305 8.5125,18.02305 Z M8.5125,17.37695 C12.8252985,17.37695 16.32695,13.7300687 16.32695,9.225 C16.32695,4.71993131 12.8252985,1.07305 8.5125,1.07305 C4.19970152,1.07305 0.69805,4.71993131 0.69805,9.225 C0.69805,13.7300687 4.19970152,17.37695 8.5125,17.37695 Z" id="Oval" fill="#E88024" fill-rule="nonzero"></path>
            </g>
            <g id="Group" transform="translate(79.500000, 47.000000)">
                <g id="Oval" opacity="0.6" fill="#FFFFFF">
                    <ellipse cx="8.1375" cy="8.475" rx="8.1375" ry="8.475"></ellipse>
                </g>
                <path d="M8.1375,17.27305 C3.46186418,17.27305 -0.32305,13.3311578 -0.32305,8.475 C-0.32305,3.61884218 3.46186418,-0.32305 8.1375,-0.32305 C12.8131358,-0.32305 16.59805,3.61884218 16.59805,8.475 C16.59805,13.3311578 12.8131358,17.27305 8.1375,17.27305 Z M8.1375,16.62695 C12.4502985,16.62695 15.95195,12.9800687 15.95195,8.475 C15.95195,3.96993131 12.4502985,0.32305 8.1375,0.32305 C3.82470152,0.32305 0.32305,3.96993131 0.32305,8.475 C0.32305,12.9800687 3.82470152,16.62695 8.1375,16.62695 Z" id="Oval" fill="#E88024" fill-rule="nonzero"></path>
            </g>
            <polygon id="Shape" fill="#2A3052" fill-rule="nonzero" points="5 137 5 136 294.283847 136 294.283847 137"></polygon>
            <g id="Group" transform="translate(25.472000, 62.514000)" fill="#2A3052" fill-rule="nonzero">
                <path d="M18.775,0.314 L20.068,0.459 L19.535,3.786 C19.707,3.799 20.593,3.799 22.193,3.786 C22.238,6.228 21.733,9.874 20.706,11.968 C21.81,13.155 22.505,13.961 22.79,14.386 L21.928,15.346 L20.158,13.233 C19.127,14.926 18.228,16.105 17.465,16.771 C17.338,16.588 17.076,16.255 16.679,15.772 C17.679,14.705 18.665,13.614 19.252,12.332 L16.972,10.06 L18.119,4.997 L16.679,4.997 L16.679,3.787 L18.292,3.787 L18.775,0.314 Z M21.02,5.005 L19.39,5.005 C19.04,6.782 18.69,8.327 18.339,9.641 C18.946,10.231 19.432,10.711 19.799,11.077 C20.424,9.744 21.021,5.953 21.021,5.005 L21.02,5.005 Z M26.691,0.337 L27.881,0.745 C26.514,3.582 25.452,5.424 24.696,6.269 C28.144,5.969 30.042,5.759 30.391,5.641 C29.546,4.039 29.056,3.141 28.919,2.95 L30.031,2.41 C31.231,4.475 32.145,6.182 32.774,7.533 L31.565,8.143 L30.936,6.754 C26.577,7.256 23.939,7.516 23.023,7.534 C22.9633298,7.13812396 22.8963183,6.74338933 22.822,6.35 C23.854,5.782 25.144,3.777 26.692,0.337 L26.691,0.337 Z M30.557,16.771 L30.557,15.674 L25.082,15.674 L25.082,16.771 L23.825,16.771 L23.825,9.164 L31.771,9.164 L31.771,16.771 L30.557,16.771 Z M30.547,10.335 L25.113,10.335 L25.113,14.433 L30.548,14.433 L30.548,10.335 L30.547,10.335 Z M1.062,2.482 L1.062,1.565 L14.782,1.565 L14.782,2.482 L12.17,2.482 L12.17,7.342 L15.91,7.342 L15.91,8.753 L12.17,8.753 L12.17,16.41 L10.715,16.41 L10.715,8.753 L5.524,8.742 C5.135,15.279 1.641,16.41 1.204,16.697 C0.896,16.294 0.644,15.927 0.449,15.592 C2.153,14.286 4.089,12.829 4.089,8.742 C2.634,8.749 1.009,8.78 0.055,8.753 L0.055,7.342 L4.09,7.342 L4.09,2.482 L1.062,2.482 Z M10.678,2.738 L5.667,2.738 L5.667,7.31 L10.678,7.31 L10.678,2.738 Z" id="Shape"></path>
            </g>
            <path d="M242.528,99.614 L242.528,100.838 C240.692,101.504 238.622,102.044 236.282,102.476 L236.12,101.216 C238.568,100.82 240.692,100.28 242.528,99.614 Z M239.198,86.654 L240.404,87.122 C239.486,89.462 238.55,91.334 237.614,92.738 C238.468334,92.6283245 239.320491,92.5023014 240.17,92.36 C240.512,91.712 240.872,91.046 241.232,90.362 L242.366,90.776 C240.728,93.818 239.36,95.978 238.262,97.274 C239.63,97.004 240.98,96.644 242.312,96.194 L242.312,97.346 C240.368,98.012 238.496,98.462 236.696,98.696 L236.354,97.526 C236.588,97.418 236.786,97.292 236.948,97.148 C237.632,96.446 238.478,95.258 239.486,93.566 C238.46,93.728 237.434,93.872 236.39,94.016 L236.066,92.828 C236.264,92.738 236.444,92.576 236.606,92.342 C237.614,90.686 238.478,88.796 239.198,86.654 Z M242.312,88.94 L246.614,88.94 L246.614,86.762 L247.928,86.762 L247.928,88.94 L252.212,88.94 L252.212,90.2 L247.928,90.2 L247.928,92.864 L251.69,92.864 L251.69,94.124 L242.906,94.124 L242.906,92.864 L246.614,92.864 L246.614,90.2 L242.312,90.2 L242.312,88.94 Z M251.168,95.924 L251.168,103.16 L249.908,103.16 L249.908,102.296 L244.76,102.296 L244.76,103.16 L243.482,103.16 L243.482,95.924 L251.168,95.924 Z M244.76,101.072 L249.908,101.072 L249.908,97.148 L244.76,97.148 L244.76,101.072 Z M254.408,88.562 L261.446,88.562 L261.446,86.762 L262.778,86.762 L262.778,88.562 L269.78,88.562 L269.78,89.804 L262.778,89.804 L262.778,91.568 L268.448,91.568 L268.448,96.662 L263.876,96.662 C265.172,98.498 267.368,100.118 270.428,101.558 L269.546,102.674 C266.36,100.892 264.128,98.894 262.832,96.662 L262.778,96.662 L262.778,103.196 L261.446,103.196 L261.446,96.662 L261.392,96.662 C260.024,99.11 257.756,101.126 254.57,102.71 L253.814,101.522 C256.802,100.262 258.98,98.642 260.33,96.662 L255.812,96.662 L255.812,91.568 L261.446,91.568 L261.446,89.804 L254.408,89.804 L254.408,88.562 Z M267.152,95.474 L267.152,92.792 L262.778,92.792 L262.778,95.474 L267.152,95.474 Z M261.446,95.474 L261.446,92.792 L257.108,92.792 L257.108,95.474 L261.446,95.474 Z" id="Shape" fill="#2A3052" fill-rule="nonzero"></path>
            <path d="M153.375,168.075 L153.375,175.3 L152.075,175.3 L152.075,169.425 L148.6,169.425 L148.6,175.25 L147.275,175.25 L147.275,168.075 L153.375,168.075 Z M150.35,176.35 C150.25,176.6 150.15,176.825 150.05,177.025 C149.5,178.025 148.625,178.8 147.375,179.35 L146.625,178.175 C147.775,177.65 148.575,176.975 149.05,176.175 C149.45,175.3 149.675,174.175 149.725,172.775 L149.725,170.6 L150.925,170.6 L150.925,172.775 C150.9,173.625 150.825,174.4 150.7,175.075 C151.65,175.9 152.45,176.725 153.1,177.55 L152.15,178.5 C151.675,177.8 151.075,177.1 150.35,176.35 Z M139.45,158.075 L149.75,158.075 C149.5,157.525 149.25,157.05 148.975,156.6 L150.775,156.3 C151.025,156.825 151.25,157.425 151.45,158.075 L161.55,158.075 L161.55,159.375 L143.375,159.375 L143.375,160.675 L159.85,160.675 L159.85,161.95 L141.7,161.95 L141.7,159.375 L139.45,159.375 L139.45,158.075 Z M142.4,163.125 L158.525,163.125 L158.525,166.85 L142.4,166.85 L142.4,163.125 Z M156.775,165.675 L156.775,164.3 L144.15,164.3 L144.15,165.675 L156.775,165.675 Z M142.025,172.475 C142,173.1 141.95,173.7 141.9,174.25 L144.65,174.25 L144.65,172.475 L142.025,172.475 Z M144.65,171.3 L144.65,169.5 L142.025,169.5 L142.025,171.3 L144.65,171.3 Z M141.725,175.425 C141.425,177.05 140.875,178.425 140.1,179.575 L138.975,178.55 C140.025,176.95 140.55,174.95 140.575,172.5 L140.575,168.125 L146.075,168.125 L146.075,177.75 C146.075,178.875 145.475,179.45 144.3,179.45 L143.275,179.45 L142.9,178.1 C143.225,178.15 143.55,178.175 143.85,178.175 C144.375,178.175 144.65,177.85 144.65,177.25 L144.65,175.425 L141.725,175.425 Z M160.625,179.175 L159.75,179.175 C158.85,179.175 158.425,178.675 158.425,177.725 L158.425,169.55 L156.05,169.55 L156.05,172.125 C156.05,173.975 155.925,175.4 155.675,176.4 C155.4,177.4 154.825,178.45 153.95,179.55 L152.825,178.575 C153.575,177.675 154.075,176.85 154.325,176.075 C154.575,175.275 154.7,173.95 154.7,172.125 L154.7,168.125 L159.775,168.125 L159.775,177.3 C159.775,177.675 159.925,177.875 160.25,177.875 L160.4,177.875 C160.55,177.875 160.675,177.75 160.75,177.5 C160.825,177.25 160.9,176.425 160.975,175 L162.125,175.4 C161.975,177.1 161.825,178.15 161.65,178.575 C161.45,178.975 161.125,179.175 160.625,179.175 Z M157.05,171.775 C157.5,172.775 157.925,173.825 158.275,174.975 L157.325,175.4 C156.95,174.15 156.55,173.05 156.1,172.1 L157.05,171.775 Z M167.23584,171.98291 L165.197266,171.98291 L165.038574,159.226563 L167.406738,159.226563 L167.23584,171.98291 Z M164.953125,175.864746 C164.953125,175.498533 165.065022,175.191326 165.288818,174.943115 C165.512615,174.694904 165.844236,174.570801 166.283691,174.570801 C166.723147,174.570801 167.056802,174.694904 167.284668,174.943115 C167.512534,175.191326 167.626465,175.498533 167.626465,175.864746 C167.626465,176.230959 167.512534,176.534097 167.284668,176.77417 C167.056802,177.014243 166.723147,177.134277 166.283691,177.134277 C165.844236,177.134277 165.512615,177.014243 165.288818,176.77417 C165.065022,176.534097 164.953125,176.230959 164.953125,175.864746 Z" id="赢!" fill="#FFFFFF" fill-rule="nonzero"></path>
        </g>
    </g>
</svg>

<svg width="299" height="197" xmlns="http://www.w3.org/2000/svg" xmlns:xlink="http://www.w3.org/1999/xlink"><defs><path d="M15.78 11.39h13.425v1.395h-6.39v1.965c1.83.885 3.69 1.905 5.58 3.045l-.855 1.29c-1.89-1.23-3.465-2.175-4.725-2.82v8.28H21.39v-11.76h-5.61V11.39zm15.45-.165h4.815v4.98H34.62v2.07h1.59v1.35h-1.59v2.28c.54-.165 1.05-.33 1.545-.48v1.425c-1.53.51-3.285.99-5.295 1.425l-.405-1.365c.225-.06.45-.105.675-.135V17.54h1.26v4.95c.3-.075.6-.15.885-.21v-6.075H31.23v-4.98zm3.465 3.66v-2.34h-2.1v2.34h2.1zm3.66-.225c-.225.75-.48 1.455-.75 2.085l-1.17-.735a18.696 18.696 0 0 0 1.335-4.425l1.215.255c-.09.51-.18.99-.285 1.44h1.14v-2.535h1.35v2.535h2.295v1.38h-2.31c-.03.93-.105 1.8-.21 2.595h3.075v1.365h-2.655c.39 2.01 1.425 3.585 3.12 4.725l-.795 1.26c-1.62-1.245-2.715-2.85-3.255-4.815-.135.42-.27.795-.405 1.155-.69 1.56-1.8 2.76-3.33 3.6l-.735-1.14c1.47-.9 2.475-2.04 3.015-3.435.15-.42.27-.87.375-1.35h-2.76v-1.365h3.015c.105-.81.165-1.665.195-2.595h-1.47z" id="a"/></defs><g fill="none" fill-rule="evenodd"><path fill="#F1F2F2" d="M0 0h299v197H0z"/><path d="M1.987 1.98v193.04h295.026V1.98H1.987zM299 0v197H0V0h299z" fill="#C2C2C2" fill-rule="nonzero"/><path d="M5 54.894v-1.207h290v1.207H5zM5 75.22v-1.207h290v1.207H5zm0 20.29v-1.207h290v1.207H5zm0 40.618v-1.207h290v1.207H5zm0 20.29v-1.207h290v1.207H5zm0 20.29v-1.207h290v1.207H5zM39.42 34h1.209v160H39.42V34zm36.709 0h1.208v160h-1.208V34zm36.67 0h1.209v160H112.8V34zm36.71 0h1.207v160h-1.208V34zm36.67 0h1.208v160h-1.208V34zm36.671 0h1.208v160h-1.208V34zm36.708 0h1.209v160h-1.209V34z" fill="#DFDEDE" fill-rule="nonzero"/><path fill="#C2C2C2" fill-rule="nonzero" d="M.805 33.951v-2.447H298.63v2.447z"/><g fill="#000"><use xlink:href="#a"/><use xlink:href="#a"/></g><path d="M125.444 80.798l-37.362-26.79a1 1 0 0 0-.49-.182l-34.958-3.291a1 1 0 1 0-.188 1.99l34.69 3.266L124.44 82.54a1 1 0 0 0 .357.161l36.539 8.486 36.349 23.682a1 1 0 0 0 .424.154l37.44 4.595a1 1 0 1 0 .243-1.986l-37.21-4.565-36.302-23.652a1 1 0 0 0-.32-.136l-36.516-8.48zm36.064 10.429l-.32-.136.148.096.172.04zm-74.103-35.41l-.489-.183.22.157.27.026z" fill="#2A3052" fill-rule="nonzero"/><path d="M190.262 150.563h-35.1l-5.4-8.213-5.4 8.213h-35.1c-2.624 0-4.725 2.137-4.725 4.8v24.787c0 2.662 2.138 4.8 4.725 4.8h81c2.625 0 4.726-2.137 4.726-4.8v-24.787c0-2.663-2.138-4.8-4.726-4.8z" fill="#E88024"/><ellipse cx="8.512" cy="9.225" rx="8.137" ry="8.475" opacity=".6" fill="#FFF" transform="translate(226.75 109.75)"/><path d="M235.262 127.773c-4.675 0-8.46-3.942-8.46-8.798s3.785-8.798 8.46-8.798c4.676 0 8.461 3.942 8.461 8.798s-3.785 8.798-8.46 8.798zm0-.646c4.313 0 7.815-3.647 7.815-8.152 0-4.505-3.502-8.152-7.815-8.152-4.312 0-7.814 3.647-7.814 8.152 0 4.505 3.502 8.152 7.814 8.152z" fill="#E88024" fill-rule="nonzero"/><ellipse cx="8.137" cy="8.475" rx="8.137" ry="8.475" opacity=".6" fill="#FFF" transform="translate(79.5 47)"/><path d="M87.638 64.273c-4.676 0-8.461-3.942-8.461-8.798s3.785-8.798 8.46-8.798c4.676 0 8.461 3.942 8.461 8.798s-3.785 8.798-8.46 8.798zm0-.646c4.312 0 7.814-3.647 7.814-8.152 0-4.505-3.502-8.152-7.814-8.152-4.313 0-7.815 3.647-7.815 8.152 0 4.505 3.502 8.152 7.815 8.152z" fill="#E88024" fill-rule="nonzero"/><path fill="#2A3052" fill-rule="nonzero" d="M5 137v-1h289.284v1zM44.247 62.828l1.293.145-.533 3.327c.172.013 1.058.013 2.658 0 .045 2.442-.46 6.088-1.487 8.182 1.104 1.187 1.799 1.993 2.084 2.418l-.862.96-1.77-2.113c-1.031 1.693-1.93 2.872-2.693 3.538a19.044 19.044 0 0 0-.786-.999c1-1.067 1.986-2.158 2.573-3.44l-2.28-2.272 1.147-5.063h-1.44v-1.21h1.613l.483-3.473zm2.245 4.691h-1.63c-.35 1.777-.7 3.322-1.051 4.636.607.59 1.093 1.07 1.46 1.436.625-1.333 1.222-5.124 1.222-6.072h-.001zm5.671-4.668l1.19.408c-1.367 2.837-2.429 4.679-3.185 5.524 3.448-.3 5.346-.51 5.695-.628-.845-1.602-1.335-2.5-1.472-2.691l1.112-.54c1.2 2.065 2.114 3.772 2.743 5.123l-1.209.61-.629-1.389c-4.359.502-6.997.762-7.913.78a32.36 32.36 0 0 0-.201-1.184c1.032-.568 2.322-2.573 3.87-6.013h-.001zm3.866 16.434v-1.097h-5.475v1.097h-1.257v-7.607h7.946v7.607h-1.214zm-.01-6.436h-5.434v4.098h5.435v-4.098h-.001zm-29.485-7.853v-.917h13.72v.917h-2.612v4.86h3.74v1.411h-3.74v7.657h-1.455v-7.657l-5.191-.011c-.389 6.537-3.883 7.668-4.32 7.955-.308-.403-.56-.77-.755-1.105 1.704-1.306 3.64-2.763 3.64-6.85-1.455.007-3.08.038-4.034.011v-1.411h4.035v-4.86h-3.028zm9.616.256h-5.011v4.572h5.011v-4.572zM242.528 99.614v1.224c-1.836.666-3.906 1.206-6.246 1.638l-.162-1.26c2.448-.396 4.572-.936 6.408-1.602zm-3.33-12.96l1.206.468c-.918 2.34-1.854 4.212-2.79 5.616a67.48 67.48 0 0 0 2.556-.378c.342-.648.702-1.314 1.062-1.998l1.134.414c-1.638 3.042-3.006 5.202-4.104 6.498 1.368-.27 2.718-.63 4.05-1.08v1.152c-1.944.666-3.816 1.116-5.616 1.35l-.342-1.17c.234-.108.432-.234.594-.378.684-.702 1.53-1.89 2.538-3.582-1.026.162-2.052.306-3.096.45l-.324-1.188c.198-.09.378-.252.54-.486 1.008-1.656 1.872-3.546 2.592-5.688zm3.114 2.286h4.302v-2.178h1.314v2.178h4.284v1.26h-4.284v2.664h3.762v1.26h-8.784v-1.26h3.708V90.2h-4.302v-1.26zm8.856 6.984v7.236h-1.26v-.864h-5.148v.864h-1.278v-7.236h7.686zm-6.408 5.148h5.148v-3.924h-5.148v3.924zm9.648-12.51h7.038v-1.8h1.332v1.8h7.002v1.242h-7.002v1.764h5.67v5.094h-4.572c1.296 1.836 3.492 3.456 6.552 4.896l-.882 1.116c-3.186-1.782-5.418-3.78-6.714-6.012h-.054v6.534h-1.332v-6.534h-.054c-1.368 2.448-3.636 4.464-6.822 6.048l-.756-1.188c2.988-1.26 5.166-2.88 6.516-4.86h-4.518v-5.094h5.634v-1.764h-7.038v-1.242zm12.744 6.912v-2.682h-4.374v2.682h4.374zm-5.706 0v-2.682h-4.338v2.682h4.338z"/><path d="M153.375 168.075v7.225h-1.3v-5.875H148.6v5.825h-1.325v-7.175h6.1zm-3.025 8.275c-.1.25-.2.475-.3.675-.55 1-1.425 1.775-2.675 2.325l-.75-1.175c1.15-.525 1.95-1.2 2.425-2 .4-.875.625-2 .675-3.4V170.6h1.2v2.175c-.025.85-.1 1.625-.225 2.3.95.825 1.75 1.65 2.4 2.475l-.95.95c-.475-.7-1.075-1.4-1.8-2.15zm-10.9-18.275h10.3c-.25-.55-.5-1.025-.775-1.475l1.8-.3c.25.525.475 1.125.675 1.775h10.1v1.3h-18.175v1.3h16.475v1.275H141.7v-2.575h-2.25v-1.3zm2.95 5.05h16.125v3.725H142.4v-3.725zm14.375 2.55V164.3H144.15v1.375h12.625zm-14.75 6.8a34.912 34.912 0 0 1-.125 1.775h2.75v-1.775h-2.625zm2.625-1.175v-1.8h-2.625v1.8h2.625zm-2.925 4.125c-.3 1.625-.85 3-1.625 4.15l-1.125-1.025c1.05-1.6 1.575-3.6 1.6-6.05v-4.375h5.5v9.625c0 1.125-.6 1.7-1.775 1.7h-1.025l-.375-1.35c.325.05.65.075.95.075.525 0 .8-.325.8-.925v-1.825h-2.925zm18.9 3.75h-.875c-.9 0-1.325-.5-1.325-1.45v-8.175h-2.375v2.575c0 1.85-.125 3.275-.375 4.275-.275 1-.85 2.05-1.725 3.15l-1.125-.975c.75-.9 1.25-1.725 1.5-2.5.25-.8.375-2.125.375-3.95v-4h5.075v9.175c0 .375.15.575.475.575h.15c.15 0 .275-.125.35-.375.075-.25.15-1.075.225-2.5l1.15.4c-.15 1.7-.3 2.75-.475 3.175-.2.4-.525.6-1.025.6zm-3.575-7.4c.45 1 .875 2.05 1.225 3.2l-.95.425c-.375-1.25-.775-2.35-1.225-3.3l.95-.325zm10.186.208h-2.039l-.158-12.756h2.368l-.171 12.756zm-2.283 3.882c0-.366.112-.674.336-.922.224-.248.555-.372.995-.372.44 0 .773.124 1 .372.229.248.342.556.342.922s-.113.67-.341.91c-.228.24-.562.36-1.001.36-.44 0-.771-.12-.995-.36-.224-.24-.336-.544-.336-.91z" fill="#FFF" fill-rule="nonzero"/></g></svg>
